img/nav-track-icon.svg

<svg width="20" height="18" viewBox="0 0 20 18" fill="none" xmlns="http://www.w3.org/2000/svg">
<path fill-rule="evenodd" clip-rule="evenodd" d="M19.6 9.25074C19.5987 8.90943 19.4902 8.57714 19.29 8.30074L17.96 6.43074C17.855 6.2874 17.7305 6.15949 17.59 6.05074H17.53L16.53 1.53074H17.8C18.0026 1.53891 18.2002 1.46683 18.35 1.33016C18.4998 1.19348 18.5896 1.00324 18.6 0.800744C18.6027 0.694937 18.5839 0.589678 18.5447 0.491374C18.5055 0.393071 18.4466 0.30378 18.3718 0.228938C18.297 0.154096 18.2077 0.0952687 18.1094 0.0560382C18.0111 0.0168078 17.9058 -0.00200538 17.8 0.000744254H1.8C1.3375 -0.012741 0.888479 0.157488 0.551157 0.474195C0.213835 0.790903 0.0156674 1.22831 0 1.69074V14.0107C0.00589442 14.3604 0.119484 14.6997 0.325283 14.9825C0.531083 15.2653 0.819076 15.4777 1.15 15.5907H1.22V15.6707C1.4879 16.2397 1.91234 16.7206 2.44364 17.0571C2.97494 17.3936 3.59111 17.5718 4.22 17.5707C4.83574 17.5805 5.44211 17.4192 5.97172 17.105C6.50133 16.7908 6.93344 16.3358 7.22 15.7907L7.28 15.6807H11.2L11.26 15.7907C11.5452 16.3402 11.9758 16.8008 12.5048 17.1222C13.0338 17.4437 13.641 17.6137 14.26 17.6137C14.879 17.6137 15.4862 17.4437 16.0152 17.1222C16.5442 16.8008 16.9748 16.3402 17.26 15.7907L17.32 15.6807H17.8C18.2634 15.6915 18.7124 15.5191 19.0495 15.2008C19.3865 14.8825 19.5843 14.4441 19.6 13.9807V9.25074ZM4.3 16.1107C4.07588 16.1283 3.85055 16.0994 3.63817 16.0257C3.42578 15.952 3.23093 15.8352 3.06587 15.6826C2.9008 15.53 2.76909 15.3449 2.67901 15.1389C2.58893 14.9329 2.54243 14.7105 2.54243 14.4857C2.54243 14.2609 2.58893 14.0386 2.67901 13.8326C2.76909 13.6266 2.9008 13.4415 3.06587 13.2889C3.23093 13.1363 3.42578 13.0195 3.63817 12.9458C3.85055 12.8721 4.07588 12.8432 4.3 12.8607C4.52412 12.8432 4.74945 12.8721 4.96183 12.9458C5.17422 13.0195 5.36907 13.1363 5.53413 13.2889C5.6992 13.4415 5.83091 13.6266 5.92099 13.8326C6.01107 14.0386 6.05757 14.2609 6.05757 14.4857C6.05757 14.7105 6.01107 14.9329 5.92099 15.1389C5.83091 15.3449 5.6992 15.53 5.53413 15.6826C5.36907 15.8352 5.17422 15.952 4.96183 16.0257C4.74945 16.0994 4.52412 16.1283 4.3 16.1107ZM10 14.2107H7.59V14.0407C7.44777 13.2776 7.0387 12.59 6.43594 12.1008C5.83318 11.6116 5.07607 11.3529 4.3 11.3707C3.42043 11.3621 2.57275 11.6997 1.94 12.3107L1.6 12.6407V10.0207H10V14.2107ZM10 8.53074H1.6V1.53074H10V8.53074ZM11.6 1.53074H15V1.73074C15 1.79074 15 1.83074 15 1.88074L15.8 5.68074H11.6V1.53074ZM14.3 16.1507C13.981 16.137 13.673 16.0299 13.4143 15.8427C13.1556 15.6554 12.9576 15.3963 12.8449 15.0975C12.7322 14.7988 12.7097 14.4734 12.7803 14.162C12.8509 13.8506 13.0114 13.5667 13.2419 13.3457C13.4724 13.1247 13.7627 12.9762 14.0769 12.9188C14.391 12.8614 14.7151 12.8975 15.0089 13.0227C15.3027 13.1478 15.5532 13.3565 15.7294 13.6229C15.9056 13.8892 15.9997 14.2014 16 14.5207C15.9793 14.9549 15.7901 15.3638 15.4727 15.6607C15.1552 15.9576 14.7346 16.119 14.3 16.1107V16.1507ZM18 14.2507H17.63L17.57 14.0807C17.4283 13.3211 17.0222 12.6361 16.4236 12.1474C15.825 11.6586 15.0727 11.3976 14.3 11.4107C13.4204 11.4021 12.5728 11.7397 11.94 12.3507L11.6 12.6807V7.18074H16.6L18.03 9.18074L18 14.2507Z" fill="#F58020"/>
</svg>

<svg width="20" height="18" fill="none" xmlns="http://www.w3.org/2000/svg"><path fill-rule="evenodd" clip-rule="evenodd" d="M19.6 9.25a1.63 1.63 0 0 0-.31-.95l-1.33-1.87a1.901 1.901 0 0 0-.37-.38h-.06l-1-4.52h1.27a.77.77 0 0 0 .8-.73.781.781 0 0 0-.8-.8h-16A1.75 1.75 0 0 0 0 1.69v12.32a1.7 1.7 0 0 0 1.15 1.58h.07v.08a3.31 3.31 0 0 0 3 1.9 3.33 3.33 0 0 0 3-1.78l.06-.11h3.92l.06.11a3.38 3.38 0 0 0 6 0l.06-.11h.48a1.76 1.76 0 0 0 1.8-1.7V9.25zM4.3 16.11a1.63 1.63 0 1 1 0-3.25 1.631 1.631 0 0 1 .662 3.166 1.63 1.63 0 0 1-.662.085zm5.7-1.9H7.59v-.17a3.27 3.27 0 0 0-3.29-2.67 3.35 3.35 0 0 0-2.36.94l-.34.33v-2.62H10v4.19zm0-5.68H1.6v-7H10v7zm1.6-7H15v.35l.8 3.8h-4.2V1.53zm2.7 14.62a1.63 1.63 0 1 1 1.7-1.63 1.67 1.67 0 0 1-1.7 1.59v.04zm3.7-1.9h-.37l-.06-.17a3.27 3.27 0 0 0-3.27-2.67 3.35 3.35 0 0 0-2.36.94l-.34.33v-5.5h5l1.43 2-.03 5.07z" fill="#F58020"/></svg>
